X:1
T:Lead Us On
T:Lead Us On
T:Christopher Henry Hudson Booth
T:Frances Jane (Fanny) Crosby, 1901
T:Public Domain Courtesy of the Cyber Hymnal™
T:Public Domain Courtesy of the Cyber Hymnal™
C:Christopher Henry Hudson Booth
Z:Public Domain
Z:Courtesy of the Cyber Hymnal™
%%score ( 1 2 ) 3 ( 4 5 )
L:1/8
Q:1/4=110
M:4/4
K:D
V:1 treble 
V:2 treble 
V:3 treble 
V:4 bass 
V:5 bass 
V:1
 F2 F2 FEDE | F4 A2 z2 | B3 c edcB | (A6 G2) | F3 F FEDE | F4 A2 z2 | ^G3 A cBAG | A6 || %8
w: 1.~Step by step, O lov- ing|Sav- ior,|In Thine own ap- point- ed|way, *|In the path which Thou hast|chos- en,|Lead us on, from day to|day.|
w: 2.~Lead us on, though storm- y|bil- lows|Wild and dark be- fore us|rise; *|Let Thy pre- cious bow of|prom- ise|Shine re- splend- ent from the|skies.|
w: 3.~Lead us on, our souls de-|fend- ing,|Till the lat- est storm is|past, *|And we hear our loved ones|sing- ing,|“Wel- come, wel- come home at|last!”|
"^Refrain" A>A | z2 (z/ G/) (e d) x4 | (z2 [DF]2 F2) x2 | [EG]3 [FA] [Ac][GB][FA][EG] | [DF]6 A>A | %13
w: |||||
w: |||||
w: Lead us|* on, *||O lead us ev- er, Till|we all Thy|
 (z c>G) ([Ge] [Gd]) ([Gc][GB]) x | [FA]4 [Fd]2 [DF][DF] | (A2 G)[B,F] [CE]3 D | D6 z2 x2 |] %17
w: ||||
w: ||||
w: * * face * shall *|see: For our hope|is * in Thy mer-|cy,|
V:2
 x8 | x8 | x8 | x8 | x8 | x8 | x8 | x6 || x2 | (B3 G c G2) (cB) | (A4 F>F) x2 | x8 | x8 | %13
 (B3 G) x4 | x8 | B,3 x2 D x2 | D6 x4 |] %17
V:3
 [A,D]2 z2 [A,D]2 z2 | [A,D]4 [A,DF]2 z2 | [DG]2 z2 [DGB]2 z2 | ([A,D]4 [A,C]2 [A,C]2) | %4
 [A,D]2 z2 [A,D]2 z2 | [A,D]4 [A,D]2 z2 | [DE]2 z2 [DE]2 z2 | [CE]6 || x2 | x9 | x8 | x8 | x8 | %13
 x8 | x8 | x8 | x10 |] %17
V:4
 [D,,D,]2 z2 [D,,D,]2 z2 | [D,,D,]2 A,,2 F,,2 D,,2 | G,,2 z2 [G,,E,]2 z2 | %3
w: ~ ~|~ ~ ~ ~|~ ~|
 ([F,,F,]2 [=F,,=F,]2 [E,,E,]2 A,,2) | [D,,D,]2 z2 [D,,D,]2 z2 | ([D,,D,]2 A,,2) (F,,2 D,,2) | %6
w: ~ * * *|~ ~|~ * ~ *|
 E,,2 z2 [E,,E,]2 z2 | (A,,2 [E,,E,]2 [A,,,A,,]2) || z2 | z2 [G,D]>[G,D] [G,D]2 z2 x | %10
w: ~ ~|~ * *||Lead us on,|
 z2 [D,A,]>[D,A,] [D,F,]2 [D,A,]2 | [A,,A,]3 [A,,A,] [A,,A,]2 [A,,A,]2 | %12
w: lead us ev- er,|Till we all Thy|
 [D,A,]2 A,2 ([F,A,]2 [D,F,]2) | z2 G,>G, [G,B,][G,B,][G,D][G,D] | %14
w: face shall see; *|For our hope is in Thy|
 (D2 A,2) [D,A,]2 [B,,B,][B,,B,] | [E,G,]3 [E,G,] [A,,G,]3 [A,,G,] | (z2 z2) x6 |] %17
w: mer- * cy, * *|||
V:5
 x8 | x8 | x8 | x8 | x8 | x8 | x8 | x6 || x2 | x9 | x8 | x8 | x2 A,2 x4 | x2 G,>G, x4 | D,4 x4 | %15
 x8 | ([D,F,]6 A,,2 E,,2) |] %17

